X:15
T:The Flowers of Spring
M:6/8
R:Jig
S:phelan-2/40
L:1/8
K:G
AAA ABd | edB G2B | dBB gBB    | ABd efg  |
AAA ABd | edB G2B | dBB gBB    | ABG A3  :|
age a2b | age edB | AGE G2A    | BAB GED  |
age a2b | age edB | AGE G2A    | BAG A3  ||
age a2b | age edB | AGE G2A    | BAB GED  |
EDE G2A | BAG Bcd | egg (3efge | dBG A3   |]

